!!!!SEGMENT: pl-sa--250-a-vii-10--002_kobierkowicz-jozef--ego-mater-pulchrae-dilectionis-in-me-gratia.krn
!!!cenid: 17xx:322
!!!COM: Kobierkowicz, Józef
!!!COM-rismID: pe30017725
!!!CDT: <1721->=1735
!!!CNT: Polish
!!!OPR: Ego Mater pulchrae dilectionis
!!!OTL: In me gratia
!!!OMV: 002
!!!PDT: 1740
!!!AGN: Sacred
!!!SMS-siglum: PL-SA
!!!SMS-shelfmark: 250/A VII 10
!!!SMS-shelfwork: 001-002 M
!!!NIFC-rismSourceID: 1001035444
!!!NIFC-rismChildID: 1001035444
!!!NIFC-islandoraID: none
!!!URL-pdf-islandora:
!!!URL-scan: https://bc.bdsandomierz.pl/dlibra/publication/1602/edition/1570/content @EN{Scan in the Sandomierz Diocese Digital Library} @PL{Skany w portalu Cyfrowa Biblioteka Diecezjalna w Sandomierzu}
!!!IIIF:
!!!ONB-nifc: UWAGA: części Motetu: Ego Mater, In me gratia, Surge Propera
!!!AIN: 1 alto 2 bass 1 tenor 1 viola 2 violn 1 vox
!!!key:
**kern	**fba	**kern	**kern	**kern	**kern	**kern	**kern	**text	**kern
*part8	*part8	*part7	*part6	*part5	*part4	*part3	*part2	*part2	*part1
*staff8	*staff8	*staff7	*staff6	*staff5	*staff4	*staff3	*staff2	*staff2	*staff1
*Ibass	*	*Iviola	*Ivioln	*Ivioln	*Ibass	*Itenor	*Ialto	*	*Ivox
*I"Basso	*	*I"Viola	*I"Violino Secondo	*I"Violino 1mo	*I"Basso	*I"Tenore	*I"Alto	*	*I"Canto
*I'bc	*	*I'vla basso	*I'vl 2	*I'vl 1	*I'B	*I'T	*I'A	*	*I'S
*clefF4	*	*clefF4	*clefG2	*clefG2	*clefF4	*clefC4	*clefC3	*	*clefC1
*k[b-e-]	*	*k[b-e-]	*k[b-e-]	*k[b-e-]	*k[b-e-]	*k[b-e-]	*k[b-e-]	*	*k[b-e-]
*g:	*	*g:	*g:	*g:	*g:	*g:	*g:	*	*g:
*M3/4	*	*M3/4	*M3/4	*M3/4	*M3/4	*M3/4	*M3/4	*	*M3/4
=1	=1	=1	=1	=1	=1	=1	=1	=1	=1
!LO:TX:a:t=P:problem=wszystkie caudy z prawej strony	!	!LO:TX:a:t=P:problem=wszystkie caudy z prawej strony	!	!LO:TX:a:t=P:problem=wszystkie caudy z prawej strony	!	!	!LO:TX:a:t=P:problem=wszystkie caudy z prawej strony	!	!
!	!	!	!	!	!	!	!LO:TX:a:i:t=Adagio	!	!
!LO:TX:a:i:t=Adagio	!	!LO:TX:a:i:t=Solo	!	!LO:TX:a:i:t=Solo	!	!	!LO:TX:b:i:t=Solo	!	!
!	!	!	!LO:TX:a:Bi:t=In me gratia \nTacet	!	!LO:TX:a:Bi:t=In me gratia \nTacet	!LO:TX:a:Bi:t=In me gratia \nTacent	!	!	!LO:TX:a:Bi:t=In me gratia \nTacet
!LO:TX:b:Bi:t=In me gratia:rj	!	!LO:TX:b:Bi:t=In me gratia:rj	!	!LO:TX:b:Bi:t=In me gratia:rj	!	!	!	!	!
!	!	!	!	!LO:N:vis=0	!	!	!	!	!
4GG/	.	4GG/	2.ryy	1.r	2.ryy	2.ryy	4r	.	2.ryy
4AA/	7	4AA/	.	.	.	.	4g\	In	.
4BB-/	6	4BB-/	.	.	.	.	4d\	me	.
=2	=2	=2	=2	=2	=2	=2	=2	=2	=2
*	*^	*	*	*	*	*	*	*	*
!LO:TX:b:i:t=Alto:rj	!	!	!	!	!	!	!	!	!	!
4C/	.	.	4C/	2.ryy	.	2.ryy	2.ryy	4e-\	gra-	2.ryy
2AA/	7	6\	2AA/	.	.	.	.	8e-\	-ti-	.
.	.	.	.	.	.	.	.	8d\	-a	.
.	.	.	.	.	.	.	.	8c\	ve-	.
.	.	.	.	.	.	.	.	8d\	-ri-	.
*	*v	*v	*	*	*	*	*	*	*	*
=3	=3	=3	=3	=3	=3	=3	=3	=3	=3
!LO:TX:b:i:t=v.	!	!	!	!	!	!	!	!	!
2GG/	.	2GG/	2.ryy	4r	2.ryy	2.ryy	(<4.B-/	-ta-	2.ryy
.	.	.	.	4r	.	.	.	.	.
.	.	.	.	.	.	.	8A/)	.	.
4GG/	.	4GG/	.	4dd\	.	.	4G/	-tis	.
!LO:LB:g=original	!	!	!	!	!	!	!	!	!
=4	=4	=4	=4	=4	=4	=4	=4	=4	=4
!	!	!	!	!	!	!	!LO:N:vis=00	!	!
2GG/	.	2GG/	2.ryy	4gg\	2.ryy	2.ryy	0.r	.	2.ryy
.	.	.	.	4aa\	.	.	.	.	.
4r	.	4r	.	4bb-\	.	.	.	.	.
=5	=5	=5	=5	=5	=5	=5	=5	=5	=5
4D\	#n	4D\	2.ryy	8aa\L	2.ryy	2.ryy	.	.	2.ryy
.	.	.	.	8bb-\	.	.	.	.	.
4r	.	4r	.	8dd\	.	.	.	.	.
.	.	.	.	8cc\	.	.	.	.	.
4r	.	4r	.	8.b-\	.	.	.	.	.
.	.	.	.	16a\Jk	.	.	.	.	.
=6	=6	=6	=6	=6	=6	=6	=6	=6	=6
*	*	*	*	*^	*	*	*	*	*
4GG/	.	4GG/	2.ryy	(<8g/L	8ryy	2.ryy	2.ryy	.	.	2.ryy
.	.	.	.	8b-/J)	8ryy	.	.	.	.	.
4r	.	4r	.	8gg/L	8b-\L	.	.	.	.	.
.	.	.	.	8gg/	8b-\	.	.	.	.	.
4r	.	4r	.	8gg/	8b-\	.	.	.	.	.
.	.	.	.	8gg/J	8b-\J	.	.	.	.	.
=7	=7	=7	=7	=7	=7	=7	=7	=7	=7	=7
4GG/	.	4GG/	2.ryy	8gg/L	8b-\L	2.ryy	2.ryy	.	.	2.ryy
.	.	.	.	8gg/	8b-\	.	.	.	.	.
4r	.	4r	.	8ff#X/	8a\	.	.	.	.	.
.	.	.	.	8ff#/	8a\	.	.	.	.	.
4r	.	4r	.	8bb-/	8dd\	.	.	.	.	.
.	.	.	.	8bb-/J	8dd\J	.	.	.	.	.
=8	=8	=8	=8	=8	=8	=8	=8	=8	=8	=8
!	!	!	!	!	!	!	!	!LO:N:vis=00	!	!
4C/	6	4C/	2.ryy	8aa/L	8cc\L	2.ryy	2.ryy	0.r	.	2.ryy
.	.	.	.	8aa/J	8cc\J	.	.	.	.	.
4r	.	4r	.	8.gg/L	8b-\L	.	.	.	.	.
.	.	.	.	.	8a\J	.	.	.	.	.
.	.	.	.	16ff#X/Jk	.	.	.	.	.	.
4D\	#n	4D\	.	8.gg/L	8b-\L	.	.	.	.	.
.	.	.	.	.	8a\J	.	.	.	.	.
.	.	.	.	16ff#X/Jk	.	.	.	.	.	.
*	*	*	*	*v	*v	*	*	*	*	*
=9	=9	=9	=9	=9	=9	=9	=9	=9	=9
4GG/	.	4GG/	2.ryy	8gg\L	2.ryy	2.ryy	.	.	2.ryy
.	.	.	.	16aa\L	.	.	.	.	.
.	.	.	.	16bb-\JJ	.	.	.	.	.
2FF#X/	6	2FF#X/	.	8dd\L	.	.	.	.	.
.	.	.	.	8cc\	.	.	.	.	.
.	.	.	.	8b-\	.	.	.	.	.
.	.	.	.	8a\J	.	.	.	.	.
!	!	!LO:LB:g=original	!	!	!	!	!	!	!
=10	=10	=10	=10	=10	=10	=10	=10	=10	=10
4GG/	.	4GG/	2.ryy	16g\LL	2.ryy	2.ryy	.	.	2.ryy
.	.	.	.	16dd\	.	.	.	.	.
.	.	.	.	16cc\	.	.	.	.	.
.	.	.	.	16dd\JJ	.	.	.	.	.
!	!	!	!	!LO:LB:g=original	!	!	!	!	!
4r	.	4r	.	16ee-\LL	.	.	.	.	.
.	.	.	.	16cc\	.	.	.	.	.
.	.	.	.	16dd\	.	.	.	.	.
.	.	.	.	16ee-\JJ	.	.	.	.	.
!	!	!	!	!LO:TX:a:t=P:problem=mixed beam	!	!	!	!	!
4r	.	4r	.	16dd\LL	.	.	.	.	.
.	.	.	.	16a/	.	.	.	.	.
.	.	.	.	16b-/	.	.	.	.	.
.	.	.	.	16cc/JJ	.	.	.	.	.
=11	=11	=11	=11	=11	=11	=11	=11	=11	=11
4E-\	6	4E-\	2.ryy	16g\LL	2.ryy	2.ryy	.	.	2.ryy
.	.	.	.	16cc\	.	.	.	.	.
.	.	.	.	16b-\	.	.	.	.	.
.	.	.	.	16cc\JJ	.	.	.	.	.
4r	.	4r	.	16dd\LL	.	.	.	.	.
.	.	.	.	16b-\	.	.	.	.	.
.	.	.	.	16cc\	.	.	.	.	.
.	.	.	.	16dd\JJ	.	.	.	.	.
4r	.	4r	.	16cc\LL	.	.	.	.	.
.	.	.	.	16a\	.	.	.	.	.
.	.	.	.	16b-\	.	.	.	.	.
.	.	.	.	16cc\JJ	.	.	.	.	.
=12	=12	=12	=12	=12	=12	=12	=12	=12	=12
!	!	!	!	!	!	!	!LO:N:vis=0	!	!
4GG/	.	4GG/	2.ryy	16b-\LL	2.ryy	2.ryy	1.r	.	2.ryy
.	.	.	.	16ee-\	.	.	.	.	.
.	.	.	.	16dd\	.	.	.	.	.
.	.	.	.	16ee-\JJ	.	.	.	.	.
4r	.	4r	.	16ff\LL	.	.	.	.	.
.	.	.	.	16dd\	.	.	.	.	.
.	.	.	.	16ee-\	.	.	.	.	.
.	.	.	.	16ff\JJ	.	.	.	.	.
4r	.	4r	.	16een\LL	.	.	.	.	.
.	.	.	.	16cc\	.	.	.	.	.
.	.	.	.	16dd\	.	.	.	.	.
.	.	.	.	16ee\JJ	.	.	.	.	.
=13	=13	=13	=13	=13	=13	=13	=13	=13	=13
4AA/	6\	4AA/	2.ryy	16ff#X\LL	2.ryy	2.ryy	.	.	2.ryy
.	.	.	.	16bb-\	.	.	.	.	.
.	.	.	.	16aa\	.	.	.	.	.
.	.	.	.	16bb-\JJ	.	.	.	.	.
4r	.	4r	.	16ccc\LL	.	.	.	.	.
.	.	.	.	16aa\	.	.	.	.	.
.	.	.	.	16bb-\	.	.	.	.	.
.	.	.	.	16ccc\JJ	.	.	.	.	.
4r	.	4r	.	16bb-\LL	.	.	.	.	.
.	.	.	.	16gg\	.	.	.	.	.
.	.	.	.	16aa\	.	.	.	.	.
.	.	.	.	16bb-\JJ	.	.	.	.	.
!LO:PB:g=original	!	!	!	!	!	!	!	!	!
=14	=14	=14	=14	=14	=14	=14	=14	=14	=14
*	*	*	*	*^	*	*	*	*	*
4GG/	.	4GG/	2.ryy	8gg/L	(>8b-\L	2.ryy	2.ryy	2.r	.	2.ryy
.	.	.	.	8gg/	8b-\)	.	.	.	.	.
4C/	6	4C/	.	8gg/	(>8b-\	.	.	.	.	.
.	.	.	.	8gg/	8b-\)	.	.	.	.	.
4D\	#n	4D\	.	8gg/	(>8b-\	.	.	.	.	.
.	.	.	.	8ff#X/J	8a\J)	.	.	.	.	.
=15	=15	=15	=15	=15	=15	=15	=15	=15	=15	=15
2GG/	.	2GG/	2.ryy	4gg/ 4b-/ 4d/	4d\ 4G\	2.ryy	2.ryy	4r	.	2.ryy
.	.	.	.	4r	4ryy	.	.	4g\	In	.
4BB-/	6	4BB-/	.	4r	4ryy	.	.	4d\	me	.
!	!	!	!	!LO:LB:g=original	!	!	!	!LO:LB:g=original	!	!
*	*	*	*	*v	*v	*	*	*	*	*
=16	=16	=16	=16	=16	=16	=16	=16	=16	=16
*	*^	*	*	*	*	*	*	*	*
!	!	!	!	!	!LO:N:vis=00	!	!	!	!	!
2C/	.	.	2C\	2.ryy	0.r	2.ryy	2.ryy	4e-\	gra-	2.ryy
.	.	.	.	.	.	.	.	8e-\	-ti-	.
.	.	.	.	.	.	.	.	8d\	-a	.
4F#X\	5	6	4F#X\	.	.	.	.	8c\	ve-	.
.	.	.	.	.	.	.	.	8d\	-ri-	.
*	*v	*v	*	*	*	*	*	*	*	*
=17	=17	=17	=17	=17	=17	=17	=17	=17	=17
2G\	.	2G\	2.ryy	.	2.ryy	2.ryy	(<4.B-/	-ta-	2.ryy
.	.	.	.	.	.	.	8A/)	.	.
!LO:TX:a:t=P:problem=w źródle cyfrowanie pomiędzy grupą ósemek	!	!	!	!	!	!	!	!	!
8BB-/L	6 5	8BB-/L	.	.	.	.	4G/	-tis	.
8C/J	.	8C/J	.	.	.	.	.	.	.
=18	=18	=18	=18	=18	=18	=18	=18	=18	=18
4D/	.	4D/	2.ryy	.	2.ryy	2.ryy	4r	.	2.ryy
4C/	6	4C/	.	.	.	.	4a\	ve-	.
4BB-/	6	4BB-/	.	.	.	.	4b-\	-ri-	.
!	!	!LO:LB:g=original	!	!	!	!	!	!	!
=19	=19	=19	=19	=19	=19	=19	=19	=19	=19
4E-\	3_	4E-\	2.ryy	.	2.ryy	2.ryy	8g\L	-ta-	2.ryy
.	.	.	.	.	.	.	8a\	.	.
4D\	.	4D\	.	.	.	.	8g\	.	.
.	.	.	.	.	.	.	8a\	.	.
4C/	X	4C/	.	.	.	.	8g\	.	.
.	.	.	.	.	.	.	8a\J	.	.
=20	=20	=20	=20	=20	=20	=20	=20	=20	=20
!	!	!	!	!LO:N:vis=0	!	!	!	!	!
4BB-/	6_	4BB-/	2.ryy	1.r	2.ryy	2.ryy	8f\L	.	2.ryy
.	.	.	.	.	.	.	8g\	.	.
4AA/	X	4AA/	.	.	.	.	8f\	.	.
.	.	.	.	.	.	.	8g\	.	.
4GG/	.	4GG/	.	.	.	.	8f\	.	.
.	.	.	.	.	.	.	8g\J	.	.
=21	=21	=21	=21	=21	=21	=21	=21	=21	=21
4D\	#	4D\	2.ryy	.	2.ryy	2.ryy	4.f#X\	.	2.ryy
4r	.	4r	.	.	.	.	.	.	.
.	.	.	.	.	.	.	8a\L	.	.
4r	.	4r	.	.	.	.	8g\	.	.
.	.	.	.	.	.	.	8f#X\J	.	.
=22	=22	=22	=22	=22	=22	=22	=22	=22	=22
*	*	*	*	*^	*	*	*	*	*
4GG/	.	4GG/	2.ryy	4r	4ryy	2.ryy	2.ryy	4g\	.	2.ryy
4r	.	4r	.	4r	4ryy	.	.	4g\	-tis	.
4r	.	4r	.	4gg/	4b-\	.	.	4r	.	.
!	!	!	!	!	!	!	!	!LO:LB:g=original	!	!
=23	=23	=23	=23	=23	=23	=23	=23	=23	=23	=23
!	!	!	!	!	!	!	!	!LO:N:vis=00	!	!
4D\	#	4D\	2.ryy	4ff#X/	2a\	2.ryy	2.ryy	0.r	.	2.ryy
4r	.	4r	.	8ff#/L	.	.	.	.	.	.
.	.	.	.	8aa/	.	.	.	.	.	.
4r	.	4r	.	8gg/	4r	.	.	.	.	.
.	.	.	.	8ff#X/J	.	.	.	.	.	.
*	*	*	*	*v	*v	*	*	*	*	*
=24	=24	=24	=24	=24	=24	=24	=24	=24	=24
4GG/	.	4GG/	2.ryy	8gg\L	2.ryy	2.ryy	.	.	2.ryy
.	.	.	.	8aa\	.	.	.	.	.
4r	.	4r	.	8bb-\	.	.	.	.	.
.	.	.	.	8dd\	.	.	.	.	.
4r	.	4r	.	8ee-\	.	.	.	.	.
.	.	.	.	8dd\J	.	.	.	.	.
!LO:LB:g=original	!	!	!	!	!	!	!	!	!
=25	=25	=25	=25	=25	=25	=25	=25	=25	=25
4C/	.	4C/	2.ryy	8ee-\L	2.ryy	2.ryy	.	.	2.ryy
.	.	.	.	8ff\	.	.	.	.	.
4r	.	4r	.	8gg\	.	.	.	.	.
.	.	.	.	8b-\	.	.	.	.	.
4r	.	4r	.	8cc\	.	.	.	.	.
.	.	.	.	8dd\J	.	.	.	.	.
=26	=26	=26	=26	=26	=26	=26	=26	=26	=26
*	*	*	*	*^	*	*	*	*	*
4F\	3	4F\	2.ryy	2cc/	4f\	2.ryy	2.ryy	.	.	2.ryy
4E-\	.	4E-\	.	.	4a\	.	.	.	.	.
4D\	6	4D\	.	4dd/	4b-\	.	.	.	.	.
=27	=27	=27	=27	=27	=27	=27	=27	=27	=27	=27
*	*^	*	*	*	*	*	*	*	*	*
*	*	*	*tremolo	*	*	*	*	*	*	*	*
!	!	!	!	!	!	!	!	!	!LO:N:vis=00	!	!
2C/	1	0	8C/L	2.ryy	2ee-/	4g\	2.ryy	2.ryy	0.r	.	2.ryy
.	.	.	8C/	.	.	.	.	.	.	.	.
.	.	.	8C/	.	.	4a\	.	.	.	.	.
.	.	.	8C/J	.	.	.	.	.	.	.	.
*	*	*	*Xtremolo	*	*	*	*	*	*	*	*
4BB-/	.	.	4BB-/	.	4dd/	4b-\	.	.	.	.	.
=28	=28	=28	=28	=28	=28	=28	=28	=28	=28	=28	=28
2F\	4	3	2F\	2.ryy	2ccT>/	2f\	2.ryy	2.ryy	.	.	2.ryy
4BB-/	.	.	4BB-/	.	4b-\	4d\	.	.	.	.	.
!	!	!	!LO:SIC:t=znak wyglądający jak custos na końcu pięciolinii:problem	!	!	!	!	!	!	!	!
!	!	!	!LO:LB:g=original	!	!	!	!	!	!	!	!
*	*v	*v	*	*	*	*	*	*	*	*	*
*	*	*	*	*v	*v	*	*	*	*	*
=29	=29	=29	=29	=29	=29	=29	=29	=29	=29
4BB-/	.	4BB-/	2.ryy	8ff\L	2.ryy	2.ryy	.	.	2.ryy
.	.	.	.	8b-\	.	.	.	.	.
4r	.	4r	.	8ee-\	.	.	.	.	.
.	.	.	.	8cc\	.	.	.	.	.
4r	.	4r	.	8ff\	.	.	.	.	.
.	.	.	.	8cc\J	.	.	.	.	.
=30	=30	=30	=30	=30	=30	=30	=30	=30	=30
4E-\	.	4E-\	2.ryy	8bb-\L	2.ryy	2.ryy	.	.	2.ryy
.	.	.	.	8ee-\	.	.	.	.	.
4r	.	4r	.	8aa-X\	.	.	.	.	.
.	.	.	.	8ff\	.	.	.	.	.
4r	.	4r	.	8.gg\	.	.	.	.	.
.	.	.	.	16ff\Jk	.	.	.	.	.
!	!	!	!	!LO:LB:g=original	!	!	!	!	!
=31	=31	=31	=31	=31	=31	=31	=31	=31	=31
*	*	*	*	*^	*	*	*	*	*
*	*^	*	*	*	*	*	*	*	*	*
!	!	!	!	!	!	!	!	!	!LO:N:vis=0	!	!
2C/	1	0	2C/	2.ryy	2ee-/	4g\	2.ryy	2.ryy	1.r	.	2.ryy
.	.	.	.	.	.	4a\	.	.	.	.	.
4BB-/	3	.	4BB-/	.	4dd/	4b-\	.	.	.	.	.
*	*v	*v	*	*	*	*	*	*	*	*	*
=32	=32	=32	=32	=32	=32	=32	=32	=32	=32	=32
!LO:TX:a:t=P:problem=mixed beam	!	!LO:TX:a:t=P:problem=mixed beam	!	!	!	!	!	!	!	!
8AA/L	6	8AA/L	2.ryy	4ff/	4a\	2.ryy	2.ryy	.	.	2.ryy
8GG/	.	8GG/	.	.	.	.	.	.	.	.
8F\	.	8F\	.	4cc/	4a\	.	.	.	.	.
8E-\J	.	8E-\J	.	.	.	.	.	.	.	.
4D\	6	4D\	.	4dd/	4b-\	.	.	.	.	.
=33	=33	=33	=33	=33	=33	=33	=33	=33	=33	=33
*	*^	*	*	*	*	*	*	*	*	*
2F\	4	3	2F\	2.ryy	2ccT>/	2e-\	2.ryy	2.ryy	2.r	.	2.ryy
4BB-/	.	.	4BB-/	.	4b-/	4d\	.	.	.	.	.
*	*v	*v	*	*	*	*	*	*	*	*	*
*	*	*	*	*v	*v	*	*	*	*	*
=34	=34	=34	=34	=34	=34	=34	=34	=34	=34
!	!	!	!	!LO:N:vis=00	!	!	!	!	!
2AA/	6	2AA/	2.ryy	0.r	2.ryy	2.ryy	4r	.	2.ryy
.	.	.	.	.	.	.	4f\	Om-	.
4r	.	4r	.	.	.	.	4c\	-nis	.
=35	=35	=35	=35	=35	=35	=35	=35	=35	=35
4r	.	4r	2.ryy	.	2.ryy	2.ryy	2d-X\	Vi-	2.ryy
4BB-/	-	4BB-/	.	.	.	.	.	.	.
4FF/	-6r	4FF/	.	.	.	.	4d-\	-ta	.
!LO:LB:g=original	!	!	!	!	!	!	!	!	!
=36	=36	=36	=36	=36	=36	=36	=36	=36	=36
2GG/	6	2GG/	2.ryy	.	2.ryy	2.ryy	4r	.	2.ryy
.	.	.	.	.	.	.	4e-\	om-	.
4r	.	4r	.	.	.	.	4B-/	-nis	.
=37	=37	=37	=37	=37	=37	=37	=37	=37	=37
*	*^	*	*	*	*	*	*	*	*
4r	.	.	4r	2.ryy	.	2.ryy	2.ryy	2c/	Vi-	2.ryy
4A-X\	6	.	4A-X\	.	.	.	.	.	.	.
4E-\	7	6	4E-\	.	.	.	.	4c/	-ta	.
*	*v	*v	*	*	*	*	*	*	*	*
=38	=38	=38	=38	=38	=38	=38	=38	=38	=38
!	!	!	!	!LO:N:vis=00	!	!	!	!	!
2BB-X/	.	2BB-/	2.ryy	0.r	2.ryy	2.ryy	4d-X\	et	2.ryy
.	.	.	.	.	.	.	4c\	in	.
4r	.	4r	.	.	.	.	4d-\	me	.
!	!	!LO:SIC:t=znak wyglądający jak custos na końcu pięciolinii:problem	!	!	!	!	!	!	!
!	!	!LO:LB:g=original	!	!	!	!	!	!	!
=39	=39	=39	=39	=39	=39	=39	=39	=39	=39
*	*^	*	*	*	*	*	*	*	*
2F\	5 #4r	5 3	2F\	2.ryy	.	2.ryy	2.ryy	2c/	om-	2.ryy
4BB-/	.	.	4BB-/	.	.	.	.	4B-/	-nis	.
*	*v	*v	*	*	*	*	*	*	*	*
=40	=40	=40	=40	=40	=40	=40	=40	=40	=40
2FF/	-	2FF/	2.ryy	.	2.ryy	2.ryy	4r	.	2.ryy
.	.	.	.	.	.	.	(>8a-X\L	in	.
.	.	.	.	.	.	.	8g\J)	.	.
4r	.	4r	.	.	.	.	8f\L	me	.
.	.	.	.	.	.	.	8g\J	.	.
=41	=41	=41	=41	=41	=41	=41	=41	=41	=41
2C/	n	2C/	2.ryy	.	2.ryy	2.ryy	4.en\	gra-	2.ryy
.	.	.	.	.	.	.	8dn\	-ti-	.
4r	.	4r	.	.	.	.	4c/	-a	.
=42	=42	=42	=42	=42-	=42	=42	=42	=42	=42
*	*	*	*	*^	*	*	*	*	*
!LO:TX:b:i:t=Viol	!	!	!	!	!	!	!	!	!	!
!	!	!	!	!	!	!	!	!LO:N:vis=00	!	!
4C/	n	4C/	2.ryy	8een/L	8g\L	2.ryy	2.ryy	0.r	.	2.ryy
.	.	.	.	8ee/	8g\	.	.	.	.	.
4r	.	4r	.	8ee/	8g\	.	.	.	.	.
.	.	.	.	8ee/	8g\	.	.	.	.	.
4r	.	4r	.	8ee/	8g\	.	.	.	.	.
.	.	.	.	8ee/J	8g\J	.	.	.	.	.
=43	=43	=43	=43	=43	=43	=43	=43	=43	=43	=43
!	!	!	!	!	!LO:SIC:s=8a-:v	!	!	!	!	!
4F\	n	4F\	2.ryy	8ff/L	8a\L	2.ryy	2.ryy	.	.	2.ryy
.	.	.	.	8aa-X/	8cc\	.	.	.	.	.
4r	.	4r	.	8aa-/	8cc\	.	.	.	.	.
.	.	.	.	8aa-/	8cc\	.	.	.	.	.
4r	.	4r	.	8aa-/	8cc\	.	.	.	.	.
.	.	.	.	8aa-/J	8cc\J	.	.	.	.	.
=44	=44	=44	=44	=44	=44	=44	=44	=44	=44	=44
4c\	n	4c\	2.ryy	2een/	2g\	2.ryy	2.ryy	.	.	2.ryy
4B-\	.	4B-X\	.	.	.	.	.	.	.	.
4A-X\	6	4A-X\	.	4ff/	4a-X\	.	.	.	.	.
*	*	*	*	*v	*v	*	*	*	*	*
=45	=45	=45	=45	=45	=45	=45	=45	=45	=45
4G\	n6r	4G\	2.ryy	16gg\LL	2.ryy	2.ryy	.	.	2.ryy
.	.	.	.	16bb-\	.	.	.	.	.
.	.	.	.	16aa-X\	.	.	.	.	.
.	.	.	.	16bb-\JJ	.	.	.	.	.
4r	.	4r	.	16ccc\LL	.	.	.	.	.
.	.	.	.	16gg\	.	.	.	.	.
.	.	.	.	16aa-X\	.	.	.	.	.
.	.	.	.	16bb-\JJ	.	.	.	.	.
4r	.	4r	.	16aa-X\LL	.	.	.	.	.
.	.	.	.	16bb-\	.	.	.	.	.
.	.	.	.	16aa-\	.	.	.	.	.
.	.	.	.	16gg\JJ	.	.	.	.	.
!	!	!	!	!LO:LB:g=original	!	!	!	!	!
=46	=46	=46	=46	=46	=46	=46	=46	=46	=46
!	!	!	!	!	!	!	!LO:N:vis=0	!	!
4F\	-	4F\	2.ryy	16ff\LL	2.ryy	2.ryy	1.r	.	2.ryy
.	.	.	.	16aa-X\	.	.	.	.	.
.	.	.	.	16gg\	.	.	.	.	.
.	.	.	.	16aa-\JJ	.	.	.	.	.
4r	.	4r	.	16bb-\LL	.	.	.	.	.
.	.	.	.	16ff\	.	.	.	.	.
.	.	.	.	16gg\	.	.	.	.	.
.	.	.	.	16aa-X\JJ	.	.	.	.	.
4r	.	4r	.	16gg\LL	.	.	.	.	.
.	.	.	.	16aa-X\	.	.	.	.	.
.	.	.	.	16gg\	.	.	.	.	.
.	.	.	.	16ff\JJ	.	.	.	.	.
!LO:LB:g=original	!	!	!	!	!	!	!	!	!
=47	=47	=47	=47	=47	=47	=47	=47	=47	=47
*	*^	*	*	*	*	*	*	*	*
2C/	4 n	3	2C/	2.ryy	16een\LL	2.ryy	2.ryy	.	.	2.ryy
.	.	.	.	.	16gg\	.	.	.	.	.
.	.	.	.	.	16ff\	.	.	.	.	.
.	.	.	.	.	16gg\JJ	.	.	.	.	.
!	!	!	!	!	!LO:SIC:s=16aa-:v	!	!	!	!	!
.	.	.	.	.	16aa\LL	.	.	.	.	.
.	.	.	.	.	16een\	.	.	.	.	.
.	.	.	.	.	16ff\	.	.	.	.	.
.	.	.	.	.	16gg\JJ	.	.	.	.	.
4r	.	.	4r	.	16een\LL	.	.	.	.	.
.	.	.	.	.	16gg\	.	.	.	.	.
.	.	.	.	.	16ff\	.	.	.	.	.
.	.	.	.	.	16ee\JJ	.	.	.	.	.
!	!	!	!	!	!	!	!	!LO:PB:g=original	!	!
*	*v	*v	*	*	*	*	*	*	*	*
=48	=48	=48	=48	=48	=48	=48	=48	=48	=48
*	*	*	*	*^	*	*	*	*	*
!	!	!	!	!	!LO:SIC:s=4a-:v	!	!	!	!	!
2F\	-	2F\	2.ryy	4ff/	4a\	2.ryy	2.ryy	4a-X\	ſpes	2.ryy
.	.	.	.	4r	4ryy	.	.	4g\	Ve-	.
4r	.	4r	.	4r	4ryy	.	.	4f\	-ri-	.
!	!	!LO:LB:g=original	!	!	!	!	!	!	!	!
*	*	*	*	*v	*v	*	*	*	*	*
=49	=49	=49	=49	=49-	=49	=49	=49	=49	=49
!	!	!	!	!LO:N:vis=00	!	!	!	!	!
4C/	n	4C/	2.ryy	0.r	2.ryy	2.ryy	2en\	-ta-	2.ryy
4BB-/	.	4BB-/	.	.	.	.	.	.	.
4AA-X/	6	4AA-X/	.	.	.	.	4f\	-tis	.
=50	=50	=50	=50	=50	=50	=50	=50	=50	=50
2FF/	-	2FF/	2.ryy	.	2.ryy	2.ryy	4f\	ſpes	2.ryy
.	.	.	.	.	.	.	4g\	ve-	.
4r	.	4r	.	.	.	.	4a-X\	-ri-	.
=51	=51	=51	=51	=51	=51	=51	=51	=51	=51
4C/	n	4C/	2.ryy	.	2.ryy	2.ryy	8g\L	-ta-	2.ryy
.	.	.	.	.	.	.	8f\	.	.
4r	.	4r	.	.	.	.	8en\	.	.
.	.	.	.	.	.	.	8g\	.	.
4r	.	4r	.	.	.	.	8f\	.	.
.	.	.	.	.	.	.	8en\J	.	.
=52	=52	=52	=52	=52	=52	=52	=52	=52	=52
4F\	-	4F\	2.ryy	.	2.ryy	2.ryy	8a-X\L	.	2.ryy
.	.	.	.	.	.	.	8g\	.	.
4r	.	4r	.	.	.	.	8f\	.	.
.	.	.	.	.	.	.	8a-\	.	.
4r	.	4r	.	.	.	.	8g\	.	.
.	.	.	.	.	.	.	8f\J	.	.
=53	=53	=53	=53	=53	=53	=53	=53	=53	=53
!	!	!	!	!LO:N:vis=00	!	!	!	!	!
4G\	.	4G\	2.ryy	0.r	2.ryy	2.ryy	8b-\L	.	2.ryy
.	.	.	.	.	.	.	8a-X\	.	.
4r	.	4r	.	.	.	.	8g\	.	.
.	.	.	.	.	.	.	8b-\	.	.
4r	.	4r	.	.	.	.	8a-X\	.	.
.	.	.	.	.	.	.	8g\J	.	.
=54	=54	=54	=54	=54	=54	=54	=54	=54	=54
4F\	-	4F\	2.ryy	.	2.ryy	2.ryy	8a-X\L	.	2.ryy
.	.	.	.	.	.	.	8g\	.	.
2BB-/	6 5	2BB-/	.	.	.	.	8f\	.	.
.	.	.	.	.	.	.	8a-X\	.	.
.	.	.	.	.	.	.	8g\	.	.
.	.	.	.	.	.	.	8f\J	.	.
=55	=55	=55	=55	=55	=55	=55	=55	=55	=55
*	*^	*	*	*	*	*	*	*	*
2C/	4	3	2C/	2.ryy	.	2.ryy	2.ryy	2en\	.	2.ryy
4FF/	.	.	4FF/	.	.	.	.	4f\	-tis	.
!	!	!	!	!	!	!	!	!LO:LB:g=original	!	!
*	*v	*v	*	*	*	*	*	*	*	*
=56	=56	=56	=56	=56	=56	=56	=56	=56	=56
4GG/	.	4GG/	2.ryy	.	2.ryy	2.ryy	4d\	ſpes	2.ryy
4FF#X/	6	4FF#X/	.	.	.	.	4d\	vi-	.
4GG/	.	4GG/	.	.	.	.	4d\	-ta	.
=57	=57	=57	=57	=57	=57	=57	=57	=57	=57
!	!	!	!	!LO:N:vis=00	!	!	!	!	!
4GG/	.	4GG/	2.ryy	0.r	2.ryy	2.ryy	4d\	et	2.ryy
4BB-/	6	4BB-/	.	.	.	.	(>8g\L	Ve-	.
.	.	.	.	.	.	.	8f#X\J)	.	.
4C/	.	4C/	.	.	.	.	(>8g\L	-ri-	.
.	.	.	.	.	.	.	8a\J)	.	.
!LO:LB:g=original	!	!	!	!	!	!	!	!	!
=58	=58	=58	=58	=58	=58	=58	=58	=58	=58
2D\	#	2D\	2.ryy	.	2.ryy	2.ryy	(>4.f#X\	-ta-	2.ryy
.	.	.	.	.	.	.	8en\)	.	.
4r	.	4r	.	.	.	.	4d\	-tis	.
=59	=59	=59	=59	=59	=59	=59	=59	=59	=59
2C/	-6r	2C/	2.ryy	.	2.ryy	2.ryy	4r	.	2.ryy
.	.	.	.	.	.	.	4a-X\	ſpes	.
4BB-/	.	4BB-/	.	.	.	.	4g\	Vir-	.
!	!	!LO:LB:g=original	!	!	!	!	!	!	!
=60	=60	=60	=60	=60	=60	=60	=60	=60	=60
4D/	#	4D/	2.ryy	.	2.ryy	2.ryy	2f#X\	-tu-	2.ryy
4C/	.	4C/	.	.	.	.	.	.	.
4BB-/	6	4BB-/	.	.	.	.	4g\	-tis	.
=61	=61	=61	=61	=61	=61	=61	=61	=61	=61
!	!	!	!	!LO:N:vis=00	!	!	!	!	!
4AA/	3	4AA/	2.ryy	0.r	2.ryy	2.ryy	4cc\	ſpes	2.ryy
4D\	#n	4D\	.	.	.	.	4b-\	Ve-	.
4F#X\	6 #	4F#X\	.	.	.	.	4d\	-ri-	.
=62	=62	=62	=62	=62	=62	=62	=62	=62	=62
4G\	.	4G\	2.ryy	.	2.ryy	2.ryy	8b-\L	-ta-	2.ryy
.	.	.	.	.	.	.	8d\	.	.
4r	.	4r	.	.	.	.	8e-\	.	.
.	.	.	.	.	.	.	8g\	.	.
4r	.	4r	.	.	.	.	8cc\	.	.
.	.	.	.	.	.	.	8f#X\J	.	.
=63	=63	=63	=63	=63	=63	=63	=63	=63	=63
4D\	#	4D\	2.ryy	.	2.ryy	2.ryy	8d\L	.	2.ryy
.	.	.	.	.	.	.	8f#X\	.	.
4r	.	4r	.	.	.	.	8g\	.	.
.	.	.	.	.	.	.	8a\	.	.
4r	.	4r	.	.	.	.	8b-\	.	.
.	.	.	.	.	.	.	8d\J	.	.
!	!	!	!	!	!	!	!LO:LB:g=original	!	!
=64	=64	=64	=64	=64	=64	=64	=64	=64	=64
4D/	#	4D/	2.ryy	.	2.ryy	2.ryy	2f\	.	2.ryy
4C/	.	4C/	.	.	.	.	.	.	.
4BB-/	6	4BB-/	.	.	.	.	4g\	-tis	.
=65	=65	=65	=65	=65	=65	=65	=65	=65	=65
!	!	!	!	!LO:N:vis=00	!	!	!	!	!
2F#X\	6	2F#X\	2.ryy	0.r	2.ryy	2.ryy	4r	.	2.ryy
.	.	.	.	.	.	.	4a\	Ve-	.
4r	.	4r	.	.	.	.	4d\	-ri-	.
=66	=66	=66	=66	=66	=66	=66	=66	=66	=66
4G\	.	4G\	2.ryy	.	2.ryy	2.ryy	8b-\L	-ta-	2.ryy
.	.	.	.	.	.	.	8d\	.	.
4r	.	4r	.	.	.	.	8e-\	.	.
.	.	.	.	.	.	.	8g\	.	.
4r	.	4r	.	.	.	.	8cc\	.	.
.	.	.	.	.	.	.	8f#X\J	.	.
=67	=67	=67	=67	=67	=67	=67	=67	=67	=67
4D\	#	4D\	2.ryy	.	2.ryy	2.ryy	8d\L	.	2.ryy
.	.	.	.	.	.	.	8f#X\	.	.
4r	.	4r	.	.	.	.	8g\	.	.
.	.	.	.	.	.	.	8a\	.	.
4r	.	4r	.	.	.	.	8b-\	.	.
.	.	.	.	.	.	.	8d\J	.	.
=68	=68	=68	=68	=68	=68	=68	=68	=68	=68
2D\	#4r	2D\	2.ryy	.	2.ryy	2.ryy	2a\	.	2.ryy
4GG/	.	4GG/	.	.	.	.	4g\	-tis	.
=69	=69	=69	=69	=69	=69	=69	=69	=69	=69
!	!	!	!	!	!	!	!LO:N:vis=00	!	!
4GG/	.	4GG/	2.ryy	16d/LL	2.ryy	2.ryy	0.r	.	2.ryy
.	.	.	.	16g/	.	.	.	.	.
.	.	.	.	16f#X/	.	.	.	.	.
.	.	.	.	16g/JJ	.	.	.	.	.
4r	.	4r	.	16a/LL	.	.	.	.	.
.	.	.	.	16f#X/	.	.	.	.	.
.	.	.	.	16g/	.	.	.	.	.
.	.	.	.	16a/JJ	.	.	.	.	.
!	!	!	!	!LO:TX:a:t=P:problem=mixed beam	!	!	!	!	!
4r	.	4r	.	16d/LL	.	.	.	.	.
.	.	.	.	16cc\	.	.	.	.	.
.	.	.	.	16b-\	.	.	.	.	.
.	.	.	.	16a\JJ	.	.	.	.	.
!LO:SIC:t=znak wyglądający jak custos na końcu pięciolinii:problem	!	!	!	!	!	!	!	!	!
!LO:LB:g=original	!	!LO:LB:g=original	!	!	!	!	!	!	!
=70	=70	=70	=70	=70	=70	=70	=70	=70	=70
!	!	!	!	!LO:TX:a:t=P:problem=mixed beam	!	!	!	!	!
4GG/	n	4GG/	2.ryy	16g/LL	2.ryy	2.ryy	.	.	2.ryy
.	.	.	.	16dd\	.	.	.	.	.
.	.	.	.	16cc\	.	.	.	.	.
.	.	.	.	16dd\JJ	.	.	.	.	.
*	*	*	*	*custos:dd	*	*	*	*	*
!	!	!	!	!LO:LB:g=original	!	!	!	!	!
4r	.	4r	.	16cc\LL	.	.	.	.	.
.	.	.	.	16a\	.	.	.	.	.
.	.	.	.	16b-\	.	.	.	.	.
.	.	.	.	16cc\JJ	.	.	.	.	.
!	!	!	!	!LO:TX:a:t=P:problem=mixed beam	!	!	!	!	!
4r	.	4r	.	16a/LL	.	.	.	.	.
.	.	.	.	16gg\	.	.	.	.	.
.	.	.	.	16ff#X\	.	.	.	.	.
.	.	.	.	16een\JJ	.	.	.	.	.
=71	=71	=71	=71	=71	=71	=71	=71	=71	=71
4GG/	.	4GG/	2.ryy	16dd\LL	2.ryy	2.ryy	.	.	2.ryy
.	.	.	.	16gg\	.	.	.	.	.
.	.	.	.	16ff#X\	.	.	.	.	.
.	.	.	.	16gg\JJ	.	.	.	.	.
4r	.	4r	.	16aa\LL	.	.	.	.	.
.	.	.	.	16ff#X\	.	.	.	.	.
.	.	.	.	16gg\	.	.	.	.	.
.	.	.	.	16aa\JJ	.	.	.	.	.
4r	.	4r	.	16dd\LL	.	.	.	.	.
.	.	.	.	16ccc\	.	.	.	.	.
.	.	.	.	16bb-\	.	.	.	.	.
.	.	.	.	16aa\JJ	.	.	.	.	.
=72	=72	=72	=72	=72	=72	=72	=72	=72	=72
*	*	*	*	*^	*	*	*	*	*
!	!	!	!	!LO:TX:a:t=P:problem=mixed beam	!	!	!	!	!	!
4GG/	.	4GG/	2.ryy	8gg\L	8r	2.ryy	2.ryy	.	.	2.ryy
.	.	.	.	8b-/	8d\L	.	.	.	.	.
4r	.	4r	.	8b-/	8d\	.	.	.	.	.
.	.	.	.	8b-/	8d\	.	.	.	.	.
4r	.	4r	.	8b-/	8d\	.	.	.	.	.
.	.	.	.	8b-/J	8d\J	.	.	.	.	.
=73	=73	=73	=73	=73	=73	=73	=73	=73	=73	=73
!	!	!	!	!LO:TX:a:t=P:problem=mixed beam	!	!	!	!LO:N:vis=00	!	!
4D\	#	4D\	2.ryy	8ff#X\L	8r	2.ryy	2.ryy	0.r	.	2.ryy
.	.	.	.	8a/	8f#X\L	.	.	.	.	.
4r	.	4r	.	8a/	8f#\	.	.	.	.	.
.	.	.	.	8a/	8f#\	.	.	.	.	.
4r	.	4r	.	8a/	8f#\	.	.	.	.	.
.	.	.	.	8a/J	8f#\J	.	.	.	.	.
=74	=74	=74	=74	=74	=74	=74	=74	=74	=74	=74
4GG/	.	4GG/	2.ryy	8b-/L	8g\L	2.ryy	2.ryy	.	.	2.ryy
.	.	.	.	8a/	8f#X\	.	.	.	.	.
4r	.	4r	.	8b-/	8g\	.	.	.	.	.
.	.	.	.	8cc/	8a\	.	.	.	.	.
4r	.	4r	.	8b-/	8g\	.	.	.	.	.
.	.	.	.	8a/J	8f#X\J	.	.	.	.	.
*	*	*	*	*v	*v	*	*	*	*	*
=75	=75	=75	=75	=75	=75	=75	=75	=75	=75
!	!	!	!	!LO:TX:a:t=P:problem=mixed beam	!	!	!	!	!
4D/	3 #n	4D\	2.ryy	8d/L	2.ryy	2.ryy	.	.	2.ryy
.	.	.	.	8cc\	.	.	.	.	.
4r	.	4r	.	8b-\	.	.	.	.	.
.	.	.	.	8a\	.	.	.	.	.
4r	.	4r	.	8b-\	.	.	.	.	.
.	.	.	.	8g\J	.	.	.	.	.
=76	=76	=76	=76	=76	=76	=76	=76	=76	=76
!	!	!	!	!LO:TX:a:t=P:problem=mixed beam	!	!	!	!	!
!LO:TX:a:t=P:problem=w źródle wytarte cyfrowanie nad tym taktem	!	!	!	!	!	!	!	!	!
4D\	#	4D\	2.ryy	8a/L	2.ryy	2.ryy	.	.	2.ryy
.	.	.	.	8ff#X\J	.	.	.	.	.
!	!	!	!	!LO:LB:g=original	!	!	!	!	!
4r	.	4r	.	8gg\L	.	.	.	.	.
.	.	.	.	8aa\	.	.	.	.	.
4r	.	4r	.	8bb-\	.	.	.	.	.
.	.	.	.	8dd\J	.	.	.	.	.
=77	=77	=77	=77	=77	=77	=77	=77	=77	=77
!	!	!	!	!	!	!	!LO:N:vis=00	!	!
4C/	.	4C/	2.ryy	8ee-\L	2.ryy	2.ryy	0.r	.	2.ryy
.	.	.	.	8aa\	.	.	.	.	.
4r	.	4r	.	8ccc\	.	.	.	.	.
.	.	.	.	8bb-\	.	.	.	.	.
4r	.	4r	.	8aa\	.	.	.	.	.
.	.	.	.	8gg\J	.	.	.	.	.
=78	=78	=78	=78	=78	=78	=78	=78	=78	=78
!	!	!	!	!LO:TX:a:t=P:problem=mixed beam	!	!	!	!	!
4D\	#	4D\	2.ryy	8ff#X\L	2.ryy	2.ryy	.	.	2.ryy
.	.	.	.	8a/	.	.	.	.	.
4r	.	4r	.	8dd\	.	.	.	.	.
.	.	.	.	8cc\	.	.	.	.	.
4r	.	4r	.	8b-\	.	.	.	.	.
.	.	.	.	8a\J	.	.	.	.	.
!	!	!LO:LB:g=original	!	!	!	!	!	!	!
=79	=79	=79	=79	=79	=79	=79	=79	=79	=79
*	*	*	*	*^	*	*	*	*	*
4BB-/	.	4BB-/	2.ryy	8gg/L	8ggL 8b-\	2.ryy	2.ryy	.	.	2.ryy
.	.	.	.	8gg/	8b-\	.	.	.	.	.
4r	.	4r	.	8gg/	8b-\	.	.	.	.	.
.	.	.	.	8gg/	8b-\	.	.	.	.	.
4r	.	4r	.	8gg/	8b-\	.	.	.	.	.
.	.	.	.	8ff#X/J	8a\J	.	.	.	.	.
=80	=80	=80	=80	=80	=80	=80	=80	=80	=80	=80
4GG/	.	4GG/	2.ryy	8bb-/L	8dd\L	2.ryy	2.ryy	.	.	2.ryy
.	.	.	.	8bb-/	8dd\	.	.	.	.	.
4r	.	4r	.	8bb-/	8dd\	.	.	.	.	.
.	.	.	.	8bb-/	8dd\	.	.	.	.	.
4r	.	4r	.	8bb-/	8dd\	.	.	.	.	.
.	.	.	.	8aa/J	8cc\J	.	.	.	.	.
!LO:LB:g=original	!	!	!	!	!	!	!	!	!	!
*	*	*	*	*v	*v	*	*	*	*	*
=81	=81	=81	=81	=81	=81	=81	=81	=81	=81
!	!	!	!	!	!	!	!LO:N:vis=00	!	!
4En\	6	4En\	2.ryy	8ccc\L	2.ryy	2.ryy	0.r	.	2.ryy
.	.	.	.	8gg\	.	.	.	.	.
4F#X\	5	4F#X\	.	8aa\	.	.	.	.	.
.	.	.	.	8bb-\J	.	.	.	.	.
4A\	3	4A\	.	16ccc\LL	.	.	.	.	.
.	.	.	.	16bb-\	.	.	.	.	.
.	.	.	.	16aa\	.	.	.	.	.
.	.	.	.	16gg\JJ	.	.	.	.	.
=82	=82	=82	=82	=82	=82	=82	=82	=82	=82
4D\	#	4D\	2.ryy	16ff#X\LL	2.ryy	2.ryy	.	.	2.ryy
.	.	.	.	16aa\	.	.	.	.	.
.	.	.	.	16gg\	.	.	.	.	.
.	.	.	.	16ff#X\JJ	.	.	.	.	.
4r	.	4r	.	16gg\LL	.	.	.	.	.
.	.	.	.	16bb-\	.	.	.	.	.
.	.	.	.	16aa\	.	.	.	.	.
.	.	.	.	16gg\JJ	.	.	.	.	.
*	*	*	*	*custos:gg	*	*	*	*	*
!	!	!	!	!LO:LB:g=original	!	!	!	!	!
4r	.	4r	.	16aa\LL	.	.	.	.	.
.	.	.	.	16ccc\	.	.	.	.	.
.	.	.	.	16bb-\	.	.	.	.	.
.	.	.	.	16aa\JJ	.	.	.	.	.
=83	=83	=83	=83	=83	=83	=83	=83	=83	=83
*	*	*	*	*^	*	*	*	*	*
4GG/	.	4GG/	2.ryy	8gg/L	(>8b-\L	2.ryy	2.ryy	.	.	2.ryy
.	.	.	.	8gg/	(>8b-\)	.	.	.	.	.
4r	.	4r	.	8gg/	8b-\)	.	.	.	.	.
.	.	.	.	8gg/	(>8b-\	.	.	.	.	.
4r	.	4r	.	8gg/	8b-\)	.	.	.	.	.
.	.	.	.	8gg/J	8b-\J	.	.	.	.	.
=84	=84	=84	=84	=84	=84	=84	=84	=84	=84	=84
4D\	#	4D\	2.ryy	8ff#X/L	8a\L	2.ryy	2.ryy	.	.	2.ryy
.	.	.	.	8ff#/	8a\	.	.	.	.	.
4r	.	4r	.	8ff#/	8a\J	.	.	.	.	.
.	.	.	.	8aa/	8r	.	.	.	.	.
4r	.	4r	.	8gg/	4r	.	.	.	.	.
.	.	.	.	8ff#X/J	.	.	.	.	.	.
=85	=85	=85	=85	=85	=85	=85	=85	=85	=85	=85
!	!	!	!	!	!	!	!	!LO:N:vis=00	!	!
4G\	.	4G\	2.ryy	8bb-/L	8dd\L	2.ryy	2.ryy	0.r	.	2.ryy
.	.	.	.	8bb-/	8dd\	.	.	.	.	.
4r	.	4r	.	8bb-/	8dd\	.	.	.	.	.
.	.	.	.	8bb-/	8dd\	.	.	.	.	.
4r	.	4r	.	8aa/	8cc\	.	.	.	.	.
.	.	.	.	8gg/J	8b-\J	.	.	.	.	.
=86	=86	=86	=86	=86	=86	=86	=86	=86	=86	=86
4C/	6 5	4C/	2.ryy	8aa/L	8cc\L	2.ryy	2.ryy	.	.	2.ryy
.	.	.	.	8bb-/	8dd\	.	.	.	.	.
4r	.	4r	.	8gg/	8b-\	.	.	.	.	.
.	.	.	.	8aa/	8cc\	.	.	.	.	.
4D/	#4r	4D/	.	8ff#X/	8a\	.	.	.	.	.
.	.	.	.	8ff#/J	8a\J	.	.	.	.	.
=87	=87	=87	=87	=87	=87	=87	=87	=87	=87	=87
8GG/L	.	8GG/L	2.ryy	4gg/	4b-\	2.ryy	2.ryy	.	.	2.ryy
8AA/	6\	8AA/	.	.	.	.	.	.	.	.
8BB-/	6\	8BB-/	.	4r	4r	.	.	.	.	.
8AA/J	6\	8AA/J	.	.	.	.	.	.	.	.
4GG/	.	4GG/	.	4r	4r	.	.	.	.	.
!	!	!LO:LB:g=original	!	!	!	!	!	!	!	!
=88	=88	=88	=88	=88	=88	=88	=88	=88	=88	=88
4G\	.	4G\	2.ryy	8bb-/L	8dd\L	2.ryy	2.ryy	.	.	2.ryy
.	.	.	.	8bb-/	8dd\	.	.	.	.	.
4r	.	4r	.	8bb-/	8dd\	.	.	.	.	.
.	.	.	.	8bb-/	8dd\	.	.	.	.	.
4r	.	4r	.	8aa/	8cc\	.	.	.	.	.
.	.	.	.	8gg/J	8b-\J	.	.	.	.	.
!	!	!	!	!LO:LB:g=original	!	!	!	!	!	!
=89	=89	=89	=89	=89	=89	=89	=89	=89	=89	=89
*	*^	*	*	*	*	*	*	*	*	*
!	!	!	!	!	!	!	!	!	!LO:N:vis=0	!	!
4C/	6 5	.	4C/	2.ryy	8aa/L	8cc\L	2.ryy	2.ryy	1.r	.	2.ryy
.	.	.	.	.	8bb-/	8dd\	.	.	.	.	.
4D/	.	.	4D/	.	8gg/	8b-\	.	.	.	.	.
.	.	.	.	.	8aa/	8cc\	.	.	.	.	.
4DD/	5 #4r	5 3	4DD/	.	8ff#X/	8a\	.	.	.	.	.
.	.	.	.	.	8ff#/J	8a\J	.	.	.	.	.
*	*v	*v	*	*	*	*	*	*	*	*	*
=90	=90	=90	=90	=90	=90	=90	=90	=90	=90	=90
2.GG/	.	2.GG/	2.ryy	4gg 4b- 4d/	4G\	2.ryy	2.ryy	.	.	2.ryy
.	.	.	.	4r	4ryy	.	.	.	.	.
.	.	.	.	4r	4ryy	.	.	.	.	.
*	*	*	*	*v	*v	*	*	*	*	*
!LO:TX:a:t=P:problem=w źródle ozdobna końcowa kreska taktowa	!	!	!	!	!	!	!	!	!
!	!	!	!	!LO:TX:b:Bi:t=Verte in alienam partem&colon; |	!	!	!	!	!
==	==	==	==	==	==	==	==	==	==
*-	*-	*-	*-	*-	*-	*-	*-	*-	*-
!!!system-decoration: [(s1,s2,s3,s4)][(s5,s6,s7)]s8
!!!RDF**kern: > = above
!!!RDF**kern: < = below
!!!EED: Wojciech Jakubiak-Danek
!!!EEV: 2020-10-23
!!!ENC: Krzysztof Stępień
!!!END: 2020-04-19
!!!YEC: Copyright 2022 Narodowy Instytut Fryderyka Chopina (https://polishscores.org)
!!!YEM: License CC-BY-4.0 (https://creativecommons.org/licenses/by/4.0)
